X:1
T: Sporting Jamie
C:
R:Strathspey
Q: 128
K:D
M:4/4
L:1/16
|:ff3 e3d fa3 a4|g3e f3d e3d cA3|ff3 e3d fa3 a4|B3d cdef d6 g2|
ff3 e3d fa3 a4|g3e f3d e3d cA3|ff3 e3d fa3 a4|B3d cdef d6 g2|
fa3 a3g fa3 a3f|g3f e3d e3d c3A|fa3 a3g ga3 a3A|B3d cdef d4 d3g|
fa3 a3g fa3 a3f|g3f e3d e3d c3A|fa3 a3g ga3 a3A|B3d cdef d4 d4:|
